icons/filled/arrow-big-up-line.svg

<svg xmlns="http://www.w3.org/2000/svg" width="24" height="24" viewBox="0 0 24 24" fill="currentColor"><path d="M10.586 3l-6.586 6.586a2 2 0 0 0 -.434 2.18l.068 .145a2 2 0 0 0 1.78 1.089h2.586v5a1 1 0 0 0 1 1h6l.117 -.007a1 1 0 0 0 .883 -.993l-.001 -5h2.587a2 2 0 0 0 1.414 -3.414l-6.586 -6.586a2 2 0 0 0 -2.828 0z"/><path d="M15 20a1 1 0 0 1 .117 1.993l-.117 .007h-6a1 1 0 0 1 -.117 -1.993l.117 -.007h6z"/></svg>

<svg xmlns="http://www.w3.org/2000/svg" width="24" height="24" fill="currentColor"><path d="M10.586 3 4 9.586a2 2 0 0 0-.434 2.18l.068.145A2 2 0 0 0 5.414 13H8v5a1 1 0 0 0 1 1h6l.117-.007A1 1 0 0 0 16 18l-.001-5h2.587A2 2 0 0 0 20 9.586L13.414 3a2 2 0 0 0-2.828 0M15 20a1 1 0 0 1 .117 1.993L15 22H9a1 1 0 0 1-.117-1.993L9 20z"/></svg>
